/* XPM */
static char *_f1b0b236adb49388d2e7785a4ae794d54HxPdrpmuEnKvZx[] = {
/* columns rows colors chars-per-pixel */
"40 40 81 1 ",
"  c #000100",
". c #000A00",
"X c #02030E",
"o c #0C0C0D",
"O c #001100",
"+ c #010312",
"@ c #000319",
"# c #090B1A",
"$ c #0F1116",
"% c #141414",
"& c #141E12",
"* c #1D1B14",
"= c #11141D",
"- c #1C1C1C",
"; c #052505",
": c #002800",
"> c #083108",
", c #0E3D0E",
"< c #132A13",
"1 c #1C231C",
"2 c #1E2B1E",
"3 c #143C14",
"4 c #1B351B",
"5 c #1C3A1C",
"6 c #232423",
"7 c #232923",
"8 c #2B2B2B",
"9 c #323232",
"0 c #453F1E",
"q c #004200",
"w c #004C00",
"e c #0E4C0E",
"r c #015201",
"t c #095409",
"y c #0D5D0D",
"u c #104D10",
"i c #1B421B",
"p c #125312",
"a c #105810",
"s c #006700",
"d c #026B02",
"f c #096907",
"g c #0A660A",
"h c #0A690A",
"j c #027402",
"k c #027C02",
"l c #0B7B0B",
"z c #126812",
"x c #685626",
"c c #836924",
"v c #9C7F2E",
"b c #028302",
"n c #028C02",
"m c #019301",
"M c #019B01",
"N c #108D10",
"B c #01A401",
"V c #01AB01",
"C c #0CA40C",
"Z c #01B501",
"A c #01BB01",
"S c #01BD01",
"D c #01C101",
"F c #01C401",
"G c #01CA01",
"H c #01CE01",
"J c #01D201",
"K c #01D401",
"L c #00D800",
"P c #00DD00",
"I c #06D906",
"U c #00E100",
"Y c #00E400",
"T c #00EB00",
"R c #00EC00",
"E c #00F000",
"W c #00F400",
"Q c #00F800",
"! c #C69D2D",
"~ c #CCB32B",
"^ c #FFFF2D",
/* pixels */
"jjjjjjkkkkkkkkkkkbbbbbbbbbbbbbbkkkkjjjdj",
"ddjjjkkkkbbbbbbnnnnnmmmmmmmmmnnnbbkjjddd",
"jdnmMBBVMBVZZZZZAAASSSSSDDZASSAZMVVBmnjk",
"ddMZSFGGABDJJKKKKDAJLLGGPPDALLLDBHGDZBnb",
"djBDKPUYYHAUTTTTTLFADRUVYRYFRRHVUYULHSMn",
"jkVHUTETEEEEEWWWWWWWTWWPZRWWWEGTEEETUGBm",
"jbZKTEKDWWQHUQQQLFWQQQQQUZTQQQQQQEKSJKVm",
"knALTRZRQQQUFQQQEFKEWQQPWTSRQQQQQYFLTLZM",
"bnALTAKQQQQQWQQQQQQFRQUZQQLTQQQQQQQWRLZM",
"bnALJSQULQQQQQQQRPRDQQUUQQLDEQQQYPQWRPAM",
"bnAKUEWZTQQQYWQQDKRLQQQQQQQLSWQQSJQWRPAB",
"knALTWFGQUFQFPQWDQQQQQQQLYQQREQTSQQWRUSB",
"knZKTWYQPZTQHZJANp34445ienLQQQQUPQLJEUDB",
"knZKTWQWFEQQA66668689998686pVGLQQQQZKYDV",
"knZKTWQQWYsr;88886%-----%6998fFGJQQTVKFV",
"knZKTWQQPOqjr66883<----6tl8896QWYWQWPHFV",
"knZKTWQWd dQP6666mK1989pKe6668QQQQQYRYFV",
"knZKTWQTb OQY687zUY&$X=fQl6-86WLQEDHEYFV",
"knZGHYQQJ  mQHbAQQ>%-0*okUIClnQWQGJWEYFV",
"knZKHZQQQr :TQUSQFo@v^!# AKQQQQQQWQWEYFV",
"knALTGDQQT  mYQVu4o+x~cXo,VRQQQQQQQWEYFV",
"bnALTWUEQWn r.RA666%+++%--yDQQQQQTPWEYDV",
"bnALRWQQQQQj  wt6686-%-668-VFQQQTZPWEUDB",
"bnSLRWQQTJDUSZw>66666666668yFPQJATQWRUSB",
"bmSPRWQQPJTQQQYm6---------8-TQUFWQQWRPAB",
"bmSFKWQQQQTKQQQg98886888888eQQQQQQQWRPZM",
"bmDAZYQQQQPHQQQZy424ipaayhjTQQQTGHQWTLZM",
"bmDPKZQQQQLKQQQQFFRJQQWWQQFJQKGHADQWTKVm",
"bmDPRFGQQQKKQQQQQGHQTFHQQQERTGYQFLQEYJBm",
"bmDPRWSKQQJLQYUQQWRQUKWQQQQQQQQYSQWEYHBn",
"bmSPRWAPQQRWQZTWGPWQQQQQQQQQQQQJLQWEUGMn",
"bnSPRULQQQQQSJQEGHHFTQQQYLQWJQQWQQWRUFmb",
"bnALRWQQQQQLDQQQQQQPYQQQQATQGFQQQQWRPDmb",
"knZKTWQQQEHPQQQQQQQQKFUQQUZQQFGQQQWRPSmb",
"kbZJTEQQQEJTQQYQQQQQQYDHQQKAQQHSWWWRLSnb",
"kbVHYRWWWWWWWWSYWWRRQQWPWWWHKWEJDERYKAnb",
"kkBFLYTRRRREEEFGRASPEEERRRRTTTTYUUULGZnb",
"jjMZGKLPPPUUUYUZHHYPFJKUPLLKKKJJJJGFZBbb",
"ddbmBVZZAASSDDDZSFFDBBBSAZZVVVVBBBBMmbdj",
"kjbnmMMMBBBBBVVVVVVVVVBBMMMmmmmmmnnnbbjk"
};
