/* XPM */
static char *e1883166f0734554a71a3af22b7af357rQs8uZjTJhBkuECC[] = {
/* columns rows colors chars-per-pixel */
"40 40 214 2 ",
"   c #020202",
".  c #080B09",
"X  c #071707",
"o  c #19150A",
"O  c #131313",
"+  c #141A16",
"@  c #1C1C1C",
"#  c #2F0909",
"$  c #0D250D",
"%  c #003202",
"&  c #063C06",
"*  c #123702",
"=  c #06231B",
"-  c #193319",
";  c #282903",
":  c #372C01",
">  c #253202",
",  c #363807",
"<  c #3B2214",
"1  c #0E1235",
"2  c #093336",
"3  c #232323",
"4  c #282626",
"5  c #2C2C2C",
"6  c #332A2B",
"7  c #303335",
"8  c #343535",
"9  c #3D3932",
"0  c #3B3C3C",
"q  c #541302",
"w  c #471316",
"e  c #630607",
"r  c #611E03",
"t  c #73100C",
"y  c #4A2803",
"u  c #473907",
"i  c #5A3A1E",
"p  c #682E06",
"a  c #742306",
"s  c #611E20",
"d  c #4C2B2B",
"f  c #793A2C",
"g  c #084A05",
"h  c #184601",
"j  c #0E5201",
"k  c #015D02",
"l  c #1D5E00",
"z  c #164716",
"x  c #045417",
"c  c #155C15",
"v  c #295902",
"b  c #355602",
"n  c #325111",
"m  c #006300",
"M  c #026C02",
"N  c #06650B",
"B  c #027402",
"V  c #027C02",
"C  c #09770C",
"Z  c #137408",
"A  c #146914",
"S  c #285D31",
"D  c #325833",
"F  c #137022",
"G  c #236326",
"H  c #2C6C2B",
"J  c #247229",
"K  c #347630",
"L  c #4A4905",
"P  c #564805",
"I  c #604605",
"U  c #407603",
"Y  c #444339",
"T  c #4B5331",
"R  c #7A4B3F",
"E  c #416532",
"W  c #12375A",
"Q  c #3E3954",
"!  c #003E64",
"~  c #463850",
"^  c #3D6E42",
"/  c #1E4568",
"(  c #0D5765",
")  c #0E4B75",
"_  c #214A6F",
"`  c #234C73",
"'  c #294C71",
"]  c #434343",
"[  c #4B4D4C",
"{  c #534857",
"}  c #535453",
"|  c #5A5C53",
" . c #5B5C5C",
".. c #71564B",
"X. c #49664A",
"o. c #5F6060",
"O. c #676969",
"+. c #6F7372",
"@. c #737574",
"#. c #747876",
"$. c #7B7D7C",
"%. c #880200",
"&. c #851407",
"*. c #941608",
"=. c #991708",
"-. c #961A1C",
";. c #AD0E09",
":. c #A71809",
">. c #B91909",
",. c #842619",
"<. c #AD2412",
"1. c #891D2B",
"2. c #C41807",
"3. c #D11E0A",
"4. c #E91502",
"5. c #FE1500",
"6. c #FD1C02",
"7. c #D9200C",
"8. c #E6220D",
"9. c #EC220D",
"0. c #FA270E",
"q. c #FE260E",
"w. c #FF2C11",
"e. c #D83A24",
"r. c #864C16",
"t. c #95472F",
"y. c #845049",
"u. c #856F5D",
"i. c #B5624C",
"p. c #028302",
"a. c #028C02",
"s. c #019301",
"d. c #019B01",
"f. c #0A9805",
"g. c #1B821E",
"h. c #119412",
"j. c #01A401",
"k. c #01AB01",
"l. c #01B501",
"z. c #09B704",
"x. c #01BC01",
"c. c #17B201",
"v. c #11A816",
"b. c #259F25",
"n. c #2F8232",
"m. c #348836",
"M. c #3A943D",
"N. c #29B72A",
"B. c #34A836",
"V. c #37B73A",
"C. c #638833",
"Z. c #52B53D",
"A. c #01C301",
"S. c #01CB01",
"D. c #0CCF00",
"F. c #01D401",
"G. c #00DB00",
"H. c #0CD608",
"J. c #10C51A",
"K. c #1DD81E",
"L. c #00E100",
"P. c #00E400",
"I. c #00EB00",
"U. c #00EC00",
"Y. c #00F100",
"T. c #00F500",
"R. c #00F800",
"E. c #0AF20A",
"W. c #13E314",
"Q. c #1BEC1D",
"!. c #13F113",
"~. c #1FCD2D",
"^. c #31D435",
"/. c #1FEA20",
"(. c #30EC32",
"). c #468746",
"_. c #4D8F51",
"`. c #59845B",
"'. c #47B452",
"]. c #5F8E60",
"[. c #7E807F",
"{. c #5EA065",
"}. c #47D04C",
"|. c #56D65A",
" X c #8E8A79",
".X c #004D82",
"XX c #065C8C",
"oX c #165B8A",
"OX c #285B88",
"+X c #12659B",
"@X c #2B6699",
"#X c #206BA2",
"$X c #AE7D87",
"%X c #5A8188",
"&X c #75A68B",
"*X c #858887",
"=X c #879588",
"-X c #9A9D8D",
";X c #8E9795",
":X c #929393",
">X c #9B9D9C",
",X c #A49B83",
"<X c #A7A9A8",
"1X c #ADB5A9",
"2X c #B2B4B3",
"3X c #BDBFBE",
"4X c #DEAA8D",
"5X c #80E48A",
"6X c #BDD0D5",
"7X c #C4C5C4",
"8X c #C9D3C3",
"9X c #E6DFC7",
"0X c #E9ECEA",
"qX c #FDFFFD",
/* pixels */
"B B B B B B V V V V V V V V V V V p.p.p.p.p.p.p.p.p.p.p.p.p.p.V V V V B B B M B ",
"M M B B B V V V V p.p.p.p.j a , B a.a.a.s.s.s.s.s.s.s.s.s.a.a.a.p.p.V B B M M M ",
"B M a.s.d.j.j.j.d.j.k.l.l.a w.q.%.k l.x.x.x.x.x.A.A.l.x.x.x.x.l.d.j.j.j.s.a.B V ",
"M M d.l.x.A.S.S.l.j.A.F.F.a q.>.i.R m F.G.G.S.S.G.G.A.x.G.G.G.A.j.S.S.A.l.j.a.p.",
"M B j.A.F.G.L.P.P.S.x.L.I.p 6.,.,Xy.k x.A.U.L.k.P.U.P.A.U.U.S.k.L.P.L.G.S.x.d.a.",
"B V k.S.L.I.Y.I.Y.Y.Y.Y.z.>.4.f u.d j.T.I.T.T.G.l.U.T.T.T.Y.S.I.Y.Y.Y.I.L.S.j.s.",
"B p.l.F.I.Y.F.A.T.T.U.Z :.q.;...4XT U.R.R.R.R.R.L.l.I.R.R.R.R.R.R.Y.F.x.F.F.k.s.",
"V a.x.G.I.U.l.U.R.S.y =.q.9.3.w 3 & F.Y.Y.R.R.G.T.I.x.U.R.R.R.R.R.P.A.G.I.G.l.d.",
"p.a.x.G.I.x.F.R.R.b w.:.*.9.8.2.;.*.H.A.U.R.L.l.R.R.G.I.R.R.R.R.R.R.R.T.U.G.l.d.",
"p.a.x.G.F.x.R.L.G.I q.>.&.9.3.0.0.q.u A.R.R.L.L.R.R.G.A.U.R.R.R.P.G.R.T.U.G.l.d.",
"p.a.x.F.L.Y.T.l.I., 0.*.:.8.0.*.* 9.9.j R.R.R.R.R.R.R.G.x.T.R.R.x.F.R.T.U.G.x.j.",
"V a.x.G.I.T.A.S.R.> 9.=.3.8.8.U A.y w.9.P L.R.R.G.P.R.R.U.Y.R.I.x.R.R.T.U.L.x.j.",
"V a.l.F.I.T.P.R.G.; q.*.*.q.>.c.U.F.a w.w.r S.P.x.L.R.R.R.R.R.L.G.R.G.F.Y.L.A.j.",
"V a.l.F.I.T.R.T.A.; 0.7.&.=.2.A.R.G.k.u 6.e.Y B j.L.R.R.Y.S.G.R.R.R.R.l.G.P.A.j.",
"V a.l.F.I.T.R.R.T.: 2.6.q.>.&.B P.x.G.T.f.u d o * A.R.R.R.F.A.S.F.R.R.U.l.F.A.j.",
"V a.l.F.I.T.R.R.R.Z ~ s :.5.6.<.f.R.R.R.R.I.h > F.R.R.R.R.R.R.T.P.T.R.R.L.S.A.k.",
"V a.l.F.I.T.R.T.S.p.) +X! 8 t t.f L F.S.S.S.v n F.R.R.R.F.I.R.R.R.R.R.P.U.P.A.k.",
"V a.l.F.I.T.R.I.F.A.= OX@XXX! . 6 1.: G.T.R.b v R.k.k.S.G.U.T.G.R.Y.A.S.Y.P.A.k.",
"V a.l.S.S.P.R.R.R.R.L.N / OX_ W oXXXw D.R.U.j T {.@.>X2X=X).h.S.R.S.F.T.Y.P.A.k.",
"V a.l.F.S.l.R.R.R.R.R.Y.B OX` W ` oXQ l z.`.;X;X2X:X[ #.1X7X7X:Xz P.R.T.Y.P.A.k.",
"V a.x.G.I.S.A.I.Y.R.S.F.A./ OXk x @XW 6 #.} 8 3 5 } 4 +   5 $.3X[.A.R.R.Y.P.A.j.",
"p.a.x.G.I.P.z @ 3 A j.T.x.` ( k ( #Xx ).7X#.} [ 8 5 5 } $.*X .$.<Xj.G.T.Y.P.A.j.",
"p.a.x.G.U.z 5 J z 8 5 x.F #X4 q { ~ l K +.:X2X>X:X+.] @.O.[ 5 0 *XV G.T.Y.L.A.j.",
"p.a.x.G.U.  A.R.W.g.3 + ) ' e s t r y 9 7 @ 5 8  .:X8 @ 0 }  .8 o.b.R.T.U.L.x.j.",
"p.s.x.G.U.@ E.(.~.A.. 6 .X1 %..X2 R.R.G 3 8 ] } 8 [ [ 4 0 [  .$. .}.R.T.U.G.x.j.",
"p.s.x.A.F.c !.5XH l n Y 6X%Xe $X&XI.R.| *XO.O.] O 8 @.+.*X7X2X=Xb.U.R.T.U.G.l.d.",
"p.s.A.x.l.A Q.S e C.H.& 9XqX6 T qX X: , n.`.*X:X<X:X<X0X3X].h.F.S.S.R.T.I.G.l.d.",
"p.s.A.G.F.& }.J # -.n & ..qX8X% < y...A.R.B # 3 +.*XX.J x.F.S.S.x.A.R.T.I.F.k.s.",
"p.s.A.G.U.& K (.'.J E Y o 1X-X  h s.f.R.d.e L J.    j.U.I.S.P.R.A.G.R.Y.P.F.j.s.",
"p.s.A.G.U.G.  B.R.(.S.& % & 3 [ j.T.U.I.= t r.~.V C @ l.R.R.R.P.x.R.T.Y.P.S.j.a.",
"p.s.A.G.U.T.B   B.Q.K.@ N a.- D k.G.T.d.v.Z.<.5 v.R.G 3 G.R.R.F.G.R.T.Y.L.S.d.a.",
"p.a.x.G.U.P.G.x.. $ 4 - l.F.R.Y.S.S.S.V V.!.q < V.K.W.+ g R.R.T.R.R.T.U.L.A.s.p.",
"p.a.x.G.U.T.R.R.T.j.j.G.A.R.R.R.R.R.R.d.J Q.i w }.'.K.H O A.R.R.R.R.T.U.G.A.s.p.",
"V a.l.F.I.T.R.R.R.Y.S.G.R.R.R.R.R.R.R.F.m A.).  _.|.V.m.O j.S.R.R.R.T.U.G.x.s.p.",
"V p.l.F.I.Y.R.R.R.Y.F.I.R.R.P.R.R.R.R.R.g N.V.^ &X|.^.m.. S.S.x.T.T.T.U.G.x.a.p.",
"V p.k.S.P.U.T.T.T.T.T.T.T.T.x.P.R.R.Y.U.d.G E.|.|./.E.M.  L.Y.F.A.Y.U.P.F.x.a.p.",
"V V j.A.G.P.I.U.Y.Y.U.Y.Y.Y.A.S.Y.x.x.L.Y.m M.Q.Q.Q.U.z $ I.I.P.L.L.L.G.S.l.a.p.",
"B B d.l.S.F.G.G.G.G.L.L.L.P.L.l.S.S.P.G.A.A.% m.V.N.D . j.F.F.F.F.S.S.A.l.j.p.p.",
"M M p.s.j.k.l.l.x.x.x.x.A.A.A.l.x.A.A.A.j.j.d.g X   O V k.j.j.j.j.j.j.d.s.p.M B ",
"V B p.a.s.d.d.d.j.j.j.j.j.j.j.k.k.k.k.k.j.j.j.j.d.d.d.s.s.s.s.s.a.a.a.a.p.p.B V "
};
