/* XPM */
static char *_56985724e0f40dc8a1bf37826e1fc5fyNkGlYsVOPSaCt3V[] = {
/* columns rows colors chars-per-pixel */
"40 40 37 1 ",
"  c #026902",
". c #026F02",
"X c #027002",
"o c #027702",
"O c #027802",
"+ c #027C02",
"@ c #028102",
"# c #028402",
"$ c #028A02",
"% c #018E01",
"& c #019101",
"* c #019701",
"= c #019801",
"- c #019F01",
"; c #01A301",
": c #01A601",
"> c #01A801",
", c #01AE01",
"< c #01B001",
"1 c #02B702",
"2 c #01BA01",
"3 c #01BD01",
"4 c #01C101",
"5 c #01C401",
"6 c #01CA01",
"7 c #01CE01",
"8 c #01D201",
"9 c #01D401",
"0 c #00D800",
"q c #00DD00",
"w c #00E100",
"e c #00E400",
"r c #00EB00",
"t c #00EC00",
"y c #00F000",
"u c #00F400",
"i c #00F800",
/* pixels */
"oXooooOOOOOO+++++@@@@@@####@@@@++OOooX.o",
"  XoOOO++@@####$$%%%&&&&&&&&&%%$#@+oX.  ",
"X $*-;:>-;,<<1112223333344123321->>;*%o+",
"..=<35662:48899994280066qq420004:7641:$#",
".X:49qwee72wrrrrr0524tw,ete5tt7,wew073=%",
"XO,7wryryyyyyuuuuuuuruuq<tuuuy6ryyyrw6:&",
"o#19ry94uui7wiii05uiiiiiw1riiiiiiy9389,*",
"+$20rt1tiiiw5iiiy59yuiiqur3tiiiiie50r0<=",
"@%20r29iiiiiuiiiiii5tiw1ii0riiiiiiiut01-",
"@%2083iw0iiiiiiitqt4iiwwii04tiiieqiutq2-",
"@%29wyu1riiieuii49t0iiiiiii03uii38iutq2;",
"+$20ru56iw5i5qiu4iiiiiiiqeiityir3iiutw3:",
"+$19rueiq1ri76iutiiiuiir2wiiiiie0i08yw3:",
"+$19ruiu5yiirwiiiq65wiiiiiiiy6qiiii19w4>",
"+$19ruiiuiiiiiiie3quiiiiiiiii9568iir,95>",
"+$19ruiiieqiiiiiuiiiirq79iiiiiiueuiuq75,",
"+$19ruiu64qiiiiiiie677869iii8riiiiiete5,",
"+$19ruir9iiiii9riiequiiiiiiiwtu0iy47ye5,",
"+$167eiiiiiiii57iiiiit4uiwiiiiiui68uye5,",
"+$1971iiiiiyiiw3iiiii70ii39iiiiiiuiuye5,",
"+$20r64iii69iii3eiiiiiiiit1tiiiiiiiuye5>",
"@%20ruwyiu0uiut94iiiiiiiiiw4iiiiirquye4>",
"@%20tuiiiiiiii5twirriy7777w55iiir1quyw4:",
"@%30tuiir84eii6eiie3iireww0i6qi82riutw3;",
"@&3qtuiiq8riiietiii50iyiiiiiuiw5uiiutq2;",
"@&359uiiiir9iiiiiiiie38ii0wiiiiiiiiutq1-",
"#&42<eiiiiq7iiiy0ii74wiiiq2iiiir67iur0<=",
"#*4q91iiii09iiii66t8iiuuii58i96724iur9,*",
"#&4qt56iii99iiiii77ir57iiiytr6ei50iye8:&",
"#&4qtu39ii80iewiiitiw9uiiiiiiiie3iuye7;%",
"@&4qtu2qiitui1ru60uiiiiiiiiiiii80iuyw6=$",
"@%3qte0iiiii38iy6775riiie0iu8iiuiiutw5*#",
"@%20tuiiiii04iiiiiiqeiiii2ri65iiiiutq4&@",
"+$19ruiiiy7qiiiiiiii95wiiw1ii56iiiutq3&@",
"+#18ryiiiy8riieiiiiiie47ii92ii73uuut03%@",
"+@,7etuuuuuuuu3euuttiiuquuu79uy84yte92%@",
"O+:50erttttyyy56t23qyyyttttrrrrewww06<%@",
"oo=1690qqqwwwew<77eq589wq009998888651:#@",
". @*:,11223344413554:;:321<,,>>:::;=&#.X",
"OX@$&==-;;;::>>,,,,,>>:;-==**&&&&%%$#@X+"
};
