/* XPM */
static char *aac933844ac843f8b6c0c50ad97d4ee9vm74dhGzq8GWioQ9[] = {
/* columns rows colors chars-per-pixel */
"40 40 205 2 ",
"   c #000000",
".  c #010509",
"X  c #0A0A0B",
"o  c #180604",
"O  c #0A0E12",
"+  c #1C1312",
"@  c #171919",
"#  c #351F1B",
"$  c #003900",
"%  c #1D2B15",
"&  c #39211E",
"*  c #2C3114",
"=  c #36361C",
"-  c #131C24",
";  c #372E2C",
":  c #492A26",
">  c #512F2A",
",  c #56332B",
"<  c #59352E",
"1  c #5F3831",
"2  c #6A3026",
"3  c #633A33",
"4  c #693D36",
"5  c #6A3C36",
"6  c #0C4D06",
"7  c #14450B",
"8  c #1A430E",
"9  c #15490B",
"0  c #0A5506",
"q  c #035C02",
"w  c #195B0D",
"e  c #264615",
"r  c #37491C",
"t  c #275615",
"y  c #38581D",
"u  c #016301",
"i  c #0C6607",
"p  c #026C02",
"a  c #027402",
"s  c #0B7705",
"d  c #027C02",
"f  c #13790B",
"g  c #247713",
"h  c #317E1C",
"j  c #3A7123",
"k  c #424222",
"l  c #494426",
"z  c #4F4F29",
"x  c #544B2C",
"c  c #59492E",
"v  c #485726",
"b  c #54552D",
"n  c #545E2D",
"m  c #5D4732",
"M  c #624532",
"N  c #694C36",
"B  c #6A4738",
"V  c #73433B",
"C  c #79473F",
"Z  c #744B3C",
"A  c #675939",
"S  c #73503B",
"D  c #526D2E",
"F  c #527B2F",
"G  c #6C643E",
"H  c #77603E",
"J  c #737A39",
"K  c #30546E",
"L  c #515455",
"P  c #7D4A42",
"I  c #7E5142",
"U  c #746943",
"Y  c #606E6F",
"T  c #834C43",
"R  c #894E46",
"E  c #994D41",
"W  c #8B5046",
"Q  c #8C5249",
"!  c #94564C",
"~  c #96594E",
"^  c #99594F",
"/  c #9D5B51",
"(  c #A55346",
")  c #A25E53",
"_  c #A85F54",
"`  c #94704F",
"'  c #966456",
"]  c #A56156",
"[  c #A86257",
"{  c #AC6459",
"}  c #A8675D",
"|  c #B76355",
" . c #B1665B",
".. c #B66A5E",
"X. c #BA6A5D",
"o. c #B66D62",
"O. c #BB6D61",
"+. c #B87267",
"@. c #C66F5F",
"#. c #D36B5B",
"$. c #C16F62",
"%. c #C47265",
"&. c #C97467",
"*. c #CA7568",
"=. c #CD786B",
"-. c #D37B6D",
";. c #D97C6E",
":. c #C97E71",
">. c #D67E70",
",. c #DA7F71",
"<. c #028202",
"1. c #028B02",
"2. c #0D8509",
"3. c #14840A",
"4. c #019301",
"5. c #019B01",
"6. c #1D931E",
"7. c #268714",
"8. c #318D1E",
"9. c #2C9519",
"0. c #01A401",
"q. c #01AB01",
"w. c #01B501",
"e. c #01BB01",
"r. c #13B30B",
"t. c #1DBD11",
"y. c #2FAE1B",
"u. c #31B91D",
"i. c #3A922C",
"p. c #33AA2C",
"a. c #4C9834",
"s. c #4EAE2D",
"d. c #01C301",
"f. c #0DC307",
"g. c #01CB01",
"h. c #01D401",
"j. c #00DB00",
"k. c #1AD70F",
"l. c #1ECB12",
"z. c #1ED01E",
"x. c #25C614",
"c. c #32D11A",
"v. c #00E300",
"b. c #00EB00",
"n. c #19EB0E",
"m. c #00F400",
"M. c #00F900",
"N. c #1BF91B",
"B. c #25E015",
"V. c #2FCF2E",
"C. c #2DDE2D",
"Z. c #30E135",
"A. c #39F538",
"S. c #649B55",
"D. c #57A44A",
"F. c #67B65C",
"G. c #6A9A64",
"H. c #43D042",
"J. c #47F447",
"K. c #8D957C",
"L. c #C9837A",
"P. c #DD8173",
"I. c #DA8376",
"U. c #E38475",
"Y. c #E98677",
"T. c #E68779",
"R. c #E88778",
"E. c #E5887A",
"W. c #EC8A7B",
"Q. c #F48E7E",
"!. c #728284",
"~. c #4A81AA",
"^. c #598AB2",
"/. c #6193BC",
"(. c #5B94C1",
"). c #6DA3D0",
"_. c #AAA299",
"`. c #8A9DA0",
"'. c #ABAFB0",
"]. c #D59587",
"[. c #EB8F81",
"{. c #F18F81",
"}. c #E29183",
"|. c #F39384",
" X c #FB9383",
".X c #FF9887",
"XX c #FF9B8B",
"oX c #ED9F90",
"OX c #FF9F90",
"+X c #F7A696",
"@X c #FFA494",
"#X c #FFAC9B",
"$X c #FFB29F",
"%X c #FFB3A2",
"&X c #FFB8A7",
"*X c #FFBDAB",
"=X c #AAD296",
"-X c #BBC4B6",
";X c #A7ECA5",
":X c #FFC2AF",
">X c #FFC8B5",
",X c #BEC4C4",
"<X c #8DD6FF",
"1X c #CECDCD",
"2X c #E9E8E8",
/* pixels */
"a a a a a a d d d d d d d d d d d <.<.<.<.<.<.<.2.a a a <.<.<.d d d d a a a p a ",
"p p a a a d d d d f q 6 7 8 8 8 7 9 6 a 4.8.D G N M B m k v j 2.<.<.d a a p p p ",
"a p 1.4.5.0.0.9.b Q  .*.U.T.T.,.-.-.-.~ e V ].OXW.T. X.XQ.T.+.N h q.0.5.4.1.a d ",
"p p 5.w.e.d.8.P +X#XQ.W.*.| @.T.Q.,.-.R.) I.#XT.*.T.=._  . X:X#X' v t.d.w.0.1.<.",
"p a 0.d.h.y.Q *X@X X%.> X   o & T ;.;.%.P.T.*.$.U./ +     : O.@X&X}.c j.g.e.5.1.",
"a d q.g.k.P %XXXU.-.+     (.~.    : U.=.&.%.%.U. .  . ^.K     ! .X&X} u.v.g.0.4.",
"a <.w.h.a.:.#X>.,./     X )./.      ) U.*.*.*.Q.3   - <X^.      %. X|.x h.h.q.4.",
"d 1.e.j.s.o.R.%.T.!                 C W.*.*.*.W.:     - O       P Y.W.~ q.j.w.5.",
"<.1.e.j.y.W ;.*.W.Q   @             P W.*.*.*.W.1             @ 3 W.-.-.i j.w.5.",
"<.1.e.j.5./ T.*.,.O.  L 2XL .       ..P.*.*.*.U.{         X 1X!.2 R.*.T.t j.w.5.",
"<.1.e.h.g.C Q.%.&.W.V   Y '.O     T W.&.*.*.*.*.W.3     . ,X`.+ &.-.*.W.r j.e.0.",
"d 1.e.j.b.w P.-.&.=.W./ o     # ! W.=.&.*.*.*.%.-.Q.T & + ; o | T.%.T.%.<.v.e.0.",
"d 1.w.h.b.h.T  X%.%.&.Y.U. .%.U.U.*.&.*.*.*.&.,.O.! .XQ.O.( ;.P.%.T. X= m.v.d.0.",
"d 1.w.h.b.m.p ( Q.I.=.=.=. X*.T E.*.&.*.*.*.%.P.+Xm # O. X.XW.W.Q.=.k 5.h.v.d.q.",
"d 1.w.h.b.m.M.i.2 _ L.L.X.E > :.XX%.%.*.*.&.%.=.#X` k.3.y P ) Q v <.m.b.q.h.d.q.",
"d 1.w.h.b.m.M.M.Z.G._.K.S.p.A #X{.P.*.&.%.=.W.|.@X' M.M.M.v.e.h.v.m.M.m.j.g.d.q.",
"d 1.w.h.b.m.M.m.z.;X-X-XA.M.J Q.@X@XP.$.%.-.XX@X#X' n.M.h.b.M.M.M.M.M.v.b.v.d.q.",
"d 1.w.h.b.m.M.b.C.;X; =XJ.M.F W.@X[.=.%.&.&.-.W.%X} B.M.v.b.m.j.M.m.d.g.m.v.d.q.",
"d 1.w.g.g.v.M.M.M.J.& F.N.M.a.| T.-.=.&.%.;.=.%.|.Q n.M.M.M.M.m.M.g.h.m.m.v.d.q.",
"d 1.w.h.g.w.M.M.M.H.    A.M.6.( ,.~ ..T.W.] ) -.U.C f.M.M.M.M.M.M.m.M.m.m.v.d.q.",
"d 1.e.j.b.g.d.M.M.D.o % V.a.* ..R./ < [ ~ 1 ..-.R.^ 1.b.M.M.M.M.M.M.M.m.m.v.d.q.",
"<.1.e.j.b.m.v.m.M.h.2 A q #./ ! ,.P.{ V V O.P.%.U.) 0.d.M.M.M.M.M.b.j.m.m.v.d.q.",
"<.1.e.j.b.m.M.M.M.M.3...$ =./ ! P.%.;.U.U.-.%.*.U.{ 5.d.d.M.M.M.b.w.j.m.m.v.d.0.",
"<.1.e.j.b.m.M.M.b.h.q.] V ~ ) Q P.*.*.*.*.*.*.*.U.! r.M.g.j.M.h.e.b.M.m.b.v.e.0.",
"<.4.e.j.b.m.M.M.j.h.b.z W.) = P T.*.*.*.*.*.*.*.U.P c.M.m.v.u.y.m.M.M.m.b.j.e.0.",
"<.4.e.d.h.m.M.M.M.M.b.1.&..X$ H T.*.*.*.*.*.*.*.P.Q x.m.i Z ) ] A s v.m.b.j.w.5.",
"<.4.d.e.w.x.s.9.4.e.h.g.0.b q ! T.*.*.*.*.*.*.&.W.[ 7 c -. X#X%X#XW.M 0.b.j.w.5.",
"<.4.d.l.n ' %.....) S w v.M.j.O. XP.&.*.*.*.*.=.&.1 C W.P.*.[.@X@X%X$XR q.h.q.4.",
"<.4.r., oX*X@XW.-.T. XU.Q g p V ^ Q *.=.*.*.*.P.! P Q.%.o.P.=.P.|.|.#X#X= h.0.4.",
"<.4.n }.#XP +.W.-.%.%.=.W.U.O.Q P / -.*.*.*.*.*.*.-.=.=.V 5 -.;.,.C +.:X .1.0.1.",
"<.7./ >X/ P Q.Q ) W.P / P.*.,.P.U.,.&.&.*.*.*.*.*.*.P.U.=.P > ..P.O.3 :.W.e 5.1.",
"<.F ..@X*.T.Q > %.W.T 5 W.*.&.*.*.*.&.&.*.*.*.*.*.=.Q / T.Q.! 1 *.W.T 3 .Xl 4.<.",
"<.w ..;.-.&.3 %.,.;.P.3 V W.,.%.*.*.*.*.*.*.*.*.;.;.! < V %.U.%.O.=.%.{ ,.b 4.<.",
"d u { U.*.%.*.-.,.) O.P.5 1 { -.*.&.*.*.*.&.&.*.{ =.W.U.V Q ,.=.P.U.-.,.-.t 4.<.",
"d <.5 Q.%.*.=.;. ., %.;.Q.~ 5 %.&.%.%.*.*.&.&.;.C 5 -.=.,.&.-.T.~ V %.P.*.q 1.<.",
"d <.6 P.P.&.*.T.5 R R.-.[ R -.%.-.T.I.*.%.P.|.>.;.5 Q P.*.;.%.5 3 ~ *.T...a 1.<.",
"d d 5.<  XU.&.=...%.=.,.V T W.|..X@XXX=.;..X#X|.,.*.O.=.*.-.5 V T.U.%. XV 0.1.<.",
"a a 5.4.k %.Q.T.U.-.*.&.&.;.|.#X@XOXW.R.Q C @X#XOX{.-.%.*.%.%.P.*.%.Q./ u 0.<.<.",
"p p <.4.0.q x ) *.U.T.T.W.W..X@X@X.X X/ a 1.V [.@X@XW.Y.W.W.Q.W.W.Q.~ t 4.<.p a ",
"d a <.1.4.5.5.a 0 e e r l c m B Z Z l u q.q.<.y U G x M I B M B N N y 1.<.<.a d "
};
