/* XPM */
static char *_117a390f2734026f72c56ab02a71227OpaHLLdgpdkwd8yS[] = {
/* columns rows colors chars-per-pixel */
"40 40 58 1 ",
"  c #030200",
". c #050300",
"X c #070400",
"o c #090600",
"O c #0C0700",
"+ c #0D0800",
"@ c #100A01",
"# c #130C01",
"$ c #160D01",
"% c #180F01",
"& c #1B1001",
"* c #1F1301",
"= c #231601",
"- c #241601",
"; c #271801",
": c #291902",
"> c #2D1B02",
", c #2F1D02",
"< c #331F02",
"1 c #372202",
"2 c #392302",
"3 c #3B2402",
"4 c #3F2602",
"5 c #402702",
"6 c #432903",
"7 c #442903",
"8 c #472C03",
"9 c #4B2E03",
"0 c #4C2E03",
"q c #4F3003",
"w c #503003",
"e c #543303",
"r c #573503",
"t c #533404",
"y c #573604",
"u c #593603",
"i c #593704",
"p c #5B3803",
"a c #5C3803",
"s c #5A3804",
"d c #5D3904",
"f c #613B04",
"g c #623C04",
"h c #643E04",
"j c #683F04",
"k c #674004",
"l c #6A4104",
"z c #6D4204",
"x c #6F4405",
"c c #724605",
"v c #744705",
"b c #764805",
"n c #7B4B05",
"m c #7C4B05",
"M c #7D4D05",
"N c #804E05",
"B c #835005",
"V c #855105",
/* pixels */
".,<111<<<,<1111:-1<<,,,,<<1<<,:=@*%$$+  ",
" lNnnbnMNBVVVVM4NVVVVVVVVVVVVVVV7BNNN5, ",
".lncllzbMBVVVm179990gMBVVVVVVVVcuVVVwl6 ",
"XzbldsgxnNVVz6NVVBNnh99rMVVVVVV5VVV0hV7 ",
"ocvhyydznNVgqVVVBNnvccnc07zVVVwcVVwlVV9 ",
"+bbldsgcnNN7VVVVNMchghcnNBu7bzeVVqgVVV9 ",
"+nncllxbMBd2hBVVNnldyslbMBVN0>VV9zVVVV0 ",
"@MNMnbnMNV9Mh99bNnldyslbMBVz:MM9zVVVVVq ",
"X7lNNNNNVzwVVVNw9vchfhxnNVu0hw,4MVVVVVq ",
"Xvf720dh0wVVVVVVm7jcxcnMNrhVV7lb090lVVq ",
".cVV6MclMVVBBBBVVN0snMMNbwVVugVVVVN199, ",
" lVVb9VVVVNNMMMNBVBg7vBVqMVlrVVVVVV9VVq ",
" gVVVahVVNMnccbmNBVVM;qN9VM7VVVVVVnwVVr ",
" dVVVV6NBNnxhglvMNVV06b7,V7MVVVVVVglVVd ",
" uVVVVn9BMvhiydznNVn9vqVc46VVVVVVV9BVVl ",
" rVVVVVqbMvhiydznNV6NV9MVBd6zVVVVN9VVVbo",
" rVBBBVN9NnzgdhcMN0zBVM0VVVVu7zVV7nVVVM@",
" rNMMMNB9MMbcxcnM7lNNNB7BVVVVVu76lVVVVN*",
" wMbvbnNcuNMMnMd7vnbbnMlaVVVVVVM<7rnNVB:",
".0vlhlcnN8VMzq7hNncllxnM7VVVVVVuznz990h:",
"X9zdydlbN299:mVBMvhdshcM0MVVVVM,bxlzbnh*",
"o7lsyikbM9VVc9VBMcgyydxncuVVVh*2zgsfznM>",
"X7xgdgznN9VVVhrBMvhdshcMN9Vl:-9blstikbM>",
".6bczxbMN9VBNNelNncllxnMc-3emVNnzdidlnM>",
" 5MnnnMNm0NMMMM7nMnnbnMNuuVVVVNMvlhlcMN>",
" 9BNNNBc<gMbccvb7NNNNNBVwcVVVVBNMnbbMNb-",
" qVVcq7r0nblgglvhuBVVVVM1uVVVVVBNbq999r=",
" -99aMVV9Mcgyyfxn9nVVVN4M6VVVVVc7qnBVVV,",
"XlVVVVVV9MchiygxnM6VVg6MVzuVVVrwNBBBVVV:",
"$NVVVVVV9MbzgglbMBg27hVVVV7NVgdVNNMMNNB;",
"$NVVVVVbuNMbccbMNVV7VVVVVVbqB6VNMnvbnMN-",
"$NVVVVVarjgdflnMBVV0NVVVVVV09cBMbzhhxnM=",
"+Mcw99991hllhi97wcVrnVVVVVVv:VNmcgishvM=",
" 6anVVVVqvMncxcnvu9:BVVVVVv50bNnxdyygcn*",
"#NVVVVVVN9nxhfhcnNV9VVVVz7wBN9NMchddlbm&",
"%NVVVVVVB9blsydlnNnwVcq7pBVVV9NNnczzvnM$",
"*NVVVVVVfwblsydlnN957aMVVVVVVlhBNMnnMNM@",
"*BVVVn07hNnchghcMN7VVVVVVVVVVV9VBNNNNBm+",
"=NNn94jzzzzzzzcnMn0NNNNNNNNNMM7Mnnnbbvlo",
"+*$.... ..o+$***&$@%&******%$@o+OooooX. "
};
